!!!COM: Music21
!!!OTL: slide_Bellbirds-Of-Kurrajong
!!!OMV: slide_Bellbirds-Of-Kurrajong
**kern
*clefG2
*k[f#c#]
*M12/8
=1
4gg
8ff#
4ee
8dd
4b
8e
8eL
8f#
8eJ
=
4gg
8ff#
4ee
8dd
4a
8d
8dL
8e
8dJ
=
4gg
8ff#
4ee
8dd
4b
8e
8eL
8f#
8eJ
=
8gL
8a
8bJ
4a
8f#
4.e
4.e
!!linebreak:original
=||
*M12/8
4gg
8ff#
4ee
8dd
4b
8e
8eL
8f#
8eJ
=
4gg
8ff#
4ee
8dd
4a
8d
8dL
8e
8dJ
=
4gg
8ff#
4ee
8dd
4b
8e
8eL
8f#
8eJ
=
8gL
8a
8bJ
4a
8f#
4.e
4.e
!!linebreak:original
=||
4g
8b
8bL
8a
8gJ
4f#
8a
8aL
8g
8f#J
=
4g
8b
8bL
8a
8gJ
8f#L
8g
8aJ
8gL
8f#
8eJ
=
4g
8b
8bL
8a
8gJ
8aL
8b
8ddJ
4.ee
=
8ddL
8ee
8ddJ
8bL
8a
8bJ
4g
8e
4.e
!!linebreak:original
=||
*M12/8
4gg
8ff#
4ee
8dd
4b
8e
8eL
8f#
8eJ
=
4gg
8ff#
4ee
8dd
4a
8d
8dL
8e
8dJ
=
4gg
8ff#
4ee
8dd
4b
8e
8eL
8f#
8eJ
=
8gL
8a
8bJ
4a
8f#
4.e
4.e
!!linebreak:original
=||
*M12/8
4gg
8ff#
4ee
8dd
4b
8e
8eL
8f#
8eJ
=
4gg
8ff#
4ee
8dd
4a
8d
8dL
8e
8dJ
=
4gg
8ff#
4ee
8dd
4b
8e
8eL
8f#
8eJ
=
8gL
8a
8bJ
4a
8f#
4.e
4.e
!!linebreak:original
=||
4g
8b
8bL
8a
8gJ
4f#
8a
8aL
8g
8f#J
=
4g
8b
8bL
8a
8gJ
8f#L
8g
8aJ
8gL
8f#
8eJ
=
4g
8b
8bL
8a
8gJ
8aL
8b
8ddJ
4.ee
=
8ddL
8ee
8ddJ
8bL
8a
8bJ
4g
8e
4.e
=||
*-
